packages/tokens/icons/receipt1/size16Px.svg

<svg viewBox="0 0 16 16" fill="none" xmlns="http://www.w3.org/2000/svg" width="1em" height="1em"><path d="M10.6857 13.5358C10.5665 13.4881 10.4335 13.4881 10.3143 13.5358L8 14.4615L5.6857 13.5358C5.56649 13.4881 5.43351 13.4881 5.3143 13.5358L3.5 14.2615L3.5 2C3.5 1.72386 3.72386 1.5 4 1.5L12 1.5C12.2761 1.5 12.5 1.72386 12.5 2L12.5 14.2615L10.6857 13.5358Z" stroke="currentColor" stroke-linecap="round" stroke-linejoin="round"/></svg>

<svg xmlns="http://www.w3.org/2000/svg" fill="none" viewBox="0 0 16 16" width="1em" height="1em"><path stroke="currentColor" stroke-linecap="round" stroke-linejoin="round" d="M10.686 13.536a.5.5 0 0 0-.372 0L8 14.46l-2.314-.925a.5.5 0 0 0-.372 0l-1.814.726V2a.5.5 0 0 1 .5-.5h8a.5.5 0 0 1 .5.5v12.261l-1.814-.725Z"/></svg>
